public/logos/paddle.svg

<svg version="1.1" id="Layer_1" xmlns="http://www.w3.org/2000/svg" xmlns:xlink="http://www.w3.org/1999/xlink" x="0px" y="0px" viewBox="0 0 24.6 30.6" style="enable-background:new 0 0 24.6 30.6;" xml:space="preserve">
 <style type="text/css">
  .st0{fill:#0E1414;}
 </style>
 <g>
  <g>
   <g>
    <path class="st0" d="M0,11.2v-1.1c1.3,0,2.6-0.5,3.6-1.5C4.5,7.7,5,6.4,5,5.1h1c0,1.3,0.5,2.6,1.5,3.5c0.9,0.9,2.2,1.5,3.6,1.5
				v1.1c-1.3,0-2.6,0.5-3.6,1.5C6.6,13.6,6,14.8,6,16.2H5c0-1.3-0.5-2.6-1.5-3.5C2.6,11.7,1.3,11.2,0,11.2z M5,3.2h8.7
				c4.2,0,7.3,3,7.3,7.4c0,4.4-3,7.4-7.3,7.4H5v12.6h3.6v-9.4h5c6.1,0,10.9-4.8,10.9-10.6C24.6,4.8,19.8,0,13.7,0H5V3.2z">
    </path>
   </g>
  </g>
 </g>
</svg>

<svg width="25" height="31" viewBox="0 0 25 31" fill="none" xmlns="http://www.w3.org/2000/svg">
    <g clip-path="url(#clip0_701_8)">
        <path
            d="M0 11.2V10.1C1.3 10.1 2.6 9.6 3.6 8.6C4.5 7.7 5 6.4 5 5.1H6C6 6.4 6.5 7.7 7.5 8.6C8.4 9.5 9.7 10.1 11.1 10.1V11.2C9.8 11.2 8.5 11.7 7.5 12.7C6.6 13.6 6 14.8 6 16.2H5C5 14.9 4.5 13.6 3.5 12.7C2.6 11.7 1.3 11.2 0 11.2ZM5 3.2H13.7C17.9 3.2 21 6.2 21 10.6C21 15 18 18 13.7 18H5V30.6H8.6V21.2H13.6C19.7 21.2 24.5 16.4 24.5 10.6C24.6 4.8 19.8 0 13.7 0H5V3.2Z"
            fill="white" />
    </g>
    <defs>
        <clipPath id="clip0_701_8">
            <rect width="24.6" height="30.6" fill="white" />
        </clipPath>
    </defs>
</svg>
